images/icon_viber.svg

<svg width="28" height="28" viewBox="0 0 28 28" fill="none" xmlns="http://www.w3.org/2000/svg">
<g clip-path="url(#clip0)">
<path d="M16.8004 0H11.1997C5.7952 0 1.39844 4.39677 1.39844 9.80126V14.0018C1.39844 17.7961 3.5867 21.2394 6.99915 22.859V27.5369C6.99915 27.943 7.50725 28.1554 7.79589 27.8669L11.8597 23.8031H16.8004C22.2048 23.8031 26.6016 19.4063 26.6016 14.0018V9.80126C26.6016 4.39677 22.2048 0 16.8004 0Z" fill="#072EFC"/>
<path d="M8.39931 22.859C4.98687 21.2393 2.7986 17.796 2.7986 14.0018V9.8012C2.7986 4.39677 7.19542 0 12.5999 0H11.1997C5.7952 0 1.39844 4.39677 1.39844 9.80126V14.0018C1.39844 17.7961 3.5867 21.2394 6.99915 22.859V27.5369C6.99915 27.943 7.50725 28.1554 7.79589 27.8669L8.39931 27.2635V22.859Z" fill="#0521B1"/>
<path d="M21.0465 17.3965L20.6269 15.1233C20.5922 14.9355 20.4467 14.7878 20.2595 14.7504L16.9592 14.0904C16.8059 14.0598 16.648 14.1077 16.5376 14.218L15.1968 15.5588C12.9378 14.5466 11.684 13.2901 10.5809 10.9341L11.9173 9.59772C12.0276 9.48736 12.0755 9.3291 12.045 9.17608L11.3849 5.8758C11.3475 5.6886 11.1998 5.54303 11.012 5.50835L8.73882 5.08879C8.67659 5.07736 8.61249 5.07856 8.5507 5.09262C7.9505 5.22895 7.40286 5.53138 6.96695 5.9674C6.21215 6.7222 5.92367 7.8236 6.1328 9.15256C6.48384 11.3841 7.57715 14.4897 9.5943 16.515L9.62186 16.5423C11.6455 18.558 14.7512 19.6515 16.9829 20.0026C17.264 20.0469 17.5348 20.0688 17.7944 20.0688C18.7621 20.0688 19.5729 19.7635 20.1681 19.1684C20.604 18.7324 20.9066 18.1848 21.0429 17.5847C21.0567 17.5228 21.058 17.4588 21.0465 17.3965Z" fill="white"/>
<path d="M11.4609 10.0535L11.9172 9.59717L11.9177 9.59668L11.4609 10.0535L11.4609 10.0535Z" fill="#E5E5E5"/>
<path d="M16.5376 14.2174L16.0768 14.6782L16.0769 14.6783L16.5376 14.2175L16.5376 14.2174Z" fill="#E5E5E5"/>
<path d="M18.6743 19.1884C18.4147 19.1884 18.1439 19.1664 17.8627 19.1221C15.6311 18.771 12.5255 17.6776 10.5018 15.6619L10.4742 15.6345C8.45705 13.6093 7.36373 10.5037 7.01269 8.27213C6.84377 7.19845 6.99995 6.27341 7.4642 5.55957C7.28641 5.67819 7.11955 5.81425 6.9667 5.9671C6.21191 6.7219 5.92343 7.82331 6.13255 9.15227C6.48359 11.3838 7.57691 14.4894 9.59405 16.5147L9.62162 16.542C11.6453 18.5578 14.7509 19.6512 16.9826 20.0023C17.2638 20.0466 17.5345 20.0685 17.7942 20.0685C18.7619 20.0685 19.5726 19.7633 20.1679 19.1681C20.3207 19.0152 20.4567 18.8484 20.5754 18.6706C20.0483 19.0134 19.4063 19.1884 18.6743 19.1884Z" fill="#E5E5E5"/>
<path d="M14.9334 7.93457C14.6757 7.93457 14.4667 8.14353 14.4667 8.40127C14.4667 8.65902 14.6757 8.86798 14.9334 8.86798C15.9629 8.86798 16.8004 9.70546 16.8004 10.7349C16.8004 10.9892 17.0128 11.2016 17.2671 11.2016C17.5214 11.2016 17.7338 10.9892 17.7338 10.7349C17.7338 9.19074 16.4776 7.93457 14.9334 7.93457Z" fill="white"/>
<path d="M14.9335 6.06738C14.7608 6.06738 14.5866 6.07695 14.4155 6.09582C14.1593 6.12409 13.9745 6.35471 14.0028 6.61098C14.0311 6.86724 14.2622 7.05154 14.518 7.0237C14.6551 7.00855 14.7949 7.00084 14.9335 7.00084C16.9923 7.00084 18.6673 8.67581 18.6673 10.7346C18.6673 10.8733 18.6595 11.013 18.6444 11.1502C18.6165 11.4029 18.8043 11.6375 19.0571 11.6654C19.3099 11.6932 19.5443 11.5055 19.5723 11.2526C19.5911 11.0816 19.6007 10.9073 19.6007 10.7346C19.6007 8.16115 17.507 6.06738 14.9335 6.06738Z" fill="white"/>
<path d="M14.9339 4.20068C14.7671 4.20068 14.5981 4.20703 14.4319 4.21966C14.1749 4.23913 13.9823 4.46335 14.0017 4.72032C14.0211 4.97736 14.2461 5.16997 14.5024 5.1505C14.6453 5.13961 14.7905 5.13414 14.9339 5.13414C18.0221 5.13414 20.5346 7.6466 20.5346 10.7349C20.5346 11.1718 20.4842 11.6068 20.3847 12.0277C20.3277 12.2688 20.4762 12.5195 20.7154 12.585C20.967 12.6539 21.2332 12.4962 21.2932 12.2424C21.4092 11.7512 21.468 11.2441 21.468 10.7349C21.468 7.13188 18.5368 4.20068 14.9339 4.20068Z" fill="white"/>
</g>
<defs>
<clipPath id="clip0">
<rect width="28" height="28" fill="white"/>
</clipPath>
</defs>
</svg>

<svg width="28" height="28" fill="none" xmlns="http://www.w3.org/2000/svg"><g clip-path="url(#clip0)"><path d="M16.8 0h-5.6C5.795 0 1.398 4.397 1.398 9.801v4.2A9.805 9.805 0 007 22.86v4.678c0 .406.508.618.797.33l4.064-4.064h4.94c5.405 0 9.802-4.397 9.802-9.801v-4.2C26.602 4.396 22.205 0 16.8 0z" fill="#072EFC"/><path d="M8.4 22.859a9.805 9.805 0 01-5.601-8.857v-4.2C2.799 4.396 7.195 0 12.599 0h-1.4C5.796 0 1.4 4.397 1.4 9.801v4.2A9.805 9.805 0 007 22.859v4.678c0 .406.508.618.797.33l.603-.604V22.86z" fill="#0521B1"/><path d="M21.047 17.396l-.42-2.273a.467.467 0 00-.367-.373l-3.3-.66a.467.467 0 00-.422.128l-1.341 1.34c-2.26-1.011-3.513-2.268-4.616-4.624l1.336-1.336a.467.467 0 00.128-.422l-.66-3.3a.467.467 0 00-.373-.368l-2.273-.42a.468.468 0 00-.188.005c-.6.136-1.148.438-1.584.874-.755.755-1.043 1.857-.834 3.186.35 2.231 1.444 5.337 3.461 7.362l.028.027c2.024 2.016 5.13 3.11 7.36 3.46.282.045.553.067.812.067.968 0 1.779-.305 2.374-.9.436-.437.739-.984.875-1.584a.472.472 0 00.004-.189z" fill="#fff"/><path d="M11.46 10.053l.457-.456-.456.457zm5.078 4.164l-.461.461.46-.46z" fill="#E5E5E5"/><path d="M18.674 19.188c-.26 0-.53-.022-.811-.066-2.232-.351-5.338-1.444-7.361-3.46l-.028-.028c-2.017-2.025-3.11-5.13-3.461-7.362-.17-1.074-.013-1.999.451-2.712a3.268 3.268 0 00-.497.407c-.755.755-1.044 1.856-.834 3.185.35 2.232 1.444 5.337 3.461 7.363l.028.027c2.023 2.016 5.129 3.11 7.36 3.46.282.045.553.067.812.067.968 0 1.779-.306 2.374-.9.153-.154.289-.32.407-.498-.527.342-1.169.517-1.9.517z" fill="#E5E5E5"/><path d="M14.933 7.935a.467.467 0 000 .933c1.03 0 1.867.837 1.867 1.867 0 .254.213.467.467.467a.471.471 0 00.467-.467c0-1.544-1.256-2.8-2.8-2.8z" fill="#fff"/><path d="M14.934 6.067c-.173 0-.347.01-.518.029a.467.467 0 10.102.928 3.738 3.738 0 014.126 4.127.471.471 0 00.413.514.471.471 0 00.515-.412 4.673 4.673 0 00-4.639-5.185z" fill="#fff"/><path d="M14.934 4.2a6.46 6.46 0 00-.502.02.467.467 0 00.07.93 5.607 5.607 0 015.882 6.877.471.471 0 00.331.558.471.471 0 00.578-.343 6.542 6.542 0 00-6.36-8.042z" fill="#fff"/></g><defs><clipPath id="clip0"><path fill="#fff" d="M0 0h28v28H0z"/></clipPath></defs></svg>
